svg/color/lthn.svg

<?xml version="1.0" encoding="UTF-8" ?>
<!DOCTYPE svg PUBLIC "-//W3C//DTD SVG 1.1//EN" "http://www.w3.org/Graphics/SVG/1.1/DTD/svg11.dtd">
<svg width="222pt" height="250pt" viewBox="0 0 222 250" version="1.1" xmlns="http://www.w3.org/2000/svg">
<g id="#ffffffff">
<path fill="#ffffff" opacity="1.00" d=" M 0.00 0.00 L 222.00 0.00 L 222.00 250.00 L 0.00 250.00 L 0.00 0.00 M 35.71 18.40 C 35.74 23.71 35.72 29.03 35.73 34.35 C 39.67 34.37 43.61 34.36 47.56 34.37 C 47.56 33.46 47.55 31.64 47.55 30.73 C 44.97 30.72 42.38 30.73 39.79 30.78 C 39.65 26.63 39.75 22.49 39.72 18.34 C 38.38 18.35 37.05 18.37 35.71 18.40 M 55.72 18.46 C 55.81 23.75 55.75 29.05 55.77 34.34 C 59.69 34.33 63.61 34.44 67.53 34.36 C 68.70 33.32 67.94 31.97 67.66 30.73 C 65.00 30.80 62.34 30.79 59.69 30.74 C 58.63 26.44 64.36 28.65 66.74 28.21 C 66.80 27.00 66.84 25.80 66.88 24.60 C 64.49 24.61 62.10 24.61 59.72 24.57 C 59.73 23.87 59.76 22.47 59.77 21.77 C 62.58 21.81 65.38 21.79 68.18 21.63 C 68.17 20.57 68.16 19.51 68.15 18.45 C 64.01 18.31 59.86 18.27 55.72 18.46 M 76.28 18.35 C 76.28 19.51 76.28 20.67 76.29 21.83 C 78.02 21.82 79.76 21.81 81.50 21.81 C 81.58 25.99 81.53 30.18 81.55 34.36 C 82.55 34.36 84.53 34.37 85.53 34.37 C 85.55 30.19 85.51 26.00 85.58 21.82 C 87.33 21.82 89.08 21.82 90.83 21.82 C 90.84 20.66 90.84 19.51 90.84 18.36 C 85.99 18.35 81.13 18.36 76.28 18.35 M 109.72 18.47 C 109.76 20.55 109.77 22.63 109.78 24.71 C 107.61 24.71 105.45 24.71 103.29 24.71 C 103.29 22.61 103.29 20.50 103.30 18.39 C 102.29 18.38 100.27 18.35 99.27 18.34 C 99.27 23.68 99.25 29.03 99.28 34.37 C 100.28 34.37 102.29 34.35 103.29 34.34 C 103.29 32.36 103.29 30.37 103.29 28.39 C 105.45 28.39 107.60 28.39 109.77 28.39 C 109.77 30.38 109.77 32.36 109.77 34.35 C 111.12 34.35 112.46 34.34 113.81 34.32 C 113.73 28.98 113.79 23.65 113.78 18.31 C 112.42 18.36 111.07 18.41 109.72 18.47 M 122.25 18.35 C 122.27 23.70 122.23 29.04 122.28 34.38 C 126.30 34.35 130.33 34.37 134.35 34.35 C 134.34 33.46 134.33 31.67 134.33 30.78 C 131.63 30.78 128.93 30.78 126.23 30.77 L 126.23 28.16 C 128.56 28.15 130.89 28.15 133.21 28.14 C 133.23 26.97 133.25 25.80 133.27 24.63 C 130.90 24.61 128.54 24.61 126.17 24.60 C 126.24 23.63 126.32 22.66 126.42 21.69 C 129.07 21.80 131.72 21.79 134.37 21.72 C 134.36 20.60 134.35 19.48 134.35 18.36 C 130.31 18.35 126.28 18.35 122.25 18.35 M 149.65 18.25 C 147.21 23.60 144.98 29.05 142.42 34.35 C 143.97 34.34 145.51 34.34 147.06 34.34 C 147.27 33.68 147.68 32.37 147.89 31.71 C 150.29 31.69 152.69 31.69 155.10 31.71 C 155.32 32.36 155.77 33.67 155.99 34.32 C 157.53 34.33 159.07 34.34 160.61 34.34 C 158.04 29.06 155.83 23.61 153.42 18.26 C 152.16 18.25 150.90 18.25 149.65 18.25 M 168.70 18.31 C 168.70 23.66 168.70 29.01 168.71 34.35 C 169.70 34.36 171.69 34.37 172.68 34.37 C 172.66 31.30 172.65 28.23 172.77 25.16 C 175.16 28.21 177.63 31.18 179.98 34.26 C 180.91 34.30 182.76 34.37 183.69 34.41 C 183.70 29.05 183.69 23.69 183.70 18.33 C 182.70 18.35 180.71 18.38 179.71 18.39 C 179.74 21.39 179.75 24.38 179.62 27.38 C 177.46 24.79 175.45 22.09 173.35 19.45 C 172.43 17.70 170.24 18.55 168.70 18.31 M 117.30 75.40 C 116.31 92.53 115.37 109.67 114.42 126.81 C 111.35 126.84 108.28 126.83 105.22 126.80 C 104.03 109.69 103.26 92.55 102.31 75.42 C 80.13 72.69 57.98 69.55 35.76 67.20 C 35.76 74.28 35.84 81.35 35.72 88.43 C 54.54 95.06 73.63 100.95 92.49 107.46 C 94.40 147.80 96.98 188.09 98.86 228.43 C 106.09 228.63 113.33 228.48 120.57 228.52 C 122.88 188.09 124.75 147.63 127.31 107.22 C 146.14 101.15 164.88 94.82 183.66 88.61 C 183.63 81.45 183.67 74.29 183.64 67.13 C 161.50 69.67 139.41 72.64 117.30 75.40 Z" />
<path fill="#ffffff" opacity="1.00" d=" M 149.31 28.37 C 150.05 26.61 150.83 24.87 151.65 23.14 C 152.29 24.90 152.99 26.64 153.74 28.36 C 152.26 28.36 150.78 28.36 149.31 28.37 Z" />
</g>
<g id="#231f20ff">
<path fill="#231f20" opacity="1.00" d=" M 35.71 18.40 C 37.05 18.37 38.38 18.35 39.72 18.34 C 39.75 22.49 39.65 26.63 39.79 30.78 C 42.38 30.73 44.97 30.72 47.55 30.73 C 47.55 31.64 47.56 33.46 47.56 34.37 C 43.61 34.36 39.67 34.37 35.73 34.35 C 35.72 29.03 35.74 23.71 35.71 18.40 Z" />
<path fill="#231f20" opacity="1.00" d=" M 55.72 18.46 C 59.86 18.27 64.01 18.31 68.15 18.45 C 68.16 19.51 68.17 20.57 68.18 21.63 C 65.38 21.79 62.58 21.81 59.77 21.77 C 59.76 22.47 59.73 23.87 59.72 24.57 C 62.10 24.61 64.49 24.61 66.88 24.60 C 66.84 25.80 66.80 27.00 66.74 28.21 C 64.36 28.65 58.63 26.44 59.69 30.74 C 62.34 30.79 65.00 30.80 67.66 30.73 C 67.94 31.97 68.70 33.32 67.53 34.36 C 63.61 34.44 59.69 34.33 55.77 34.34 C 55.75 29.05 55.81 23.75 55.72 18.46 Z" />
<path fill="#231f20" opacity="1.00" d=" M 76.28 18.35 C 81.13 18.36 85.99 18.35 90.84 18.36 C 90.84 19.51 90.84 20.66 90.83 21.82 C 89.08 21.82 87.33 21.82 85.58 21.82 C 85.51 26.00 85.55 30.19 85.53 34.37 C 84.53 34.37 82.55 34.36 81.55 34.36 C 81.53 30.18 81.58 25.99 81.50 21.81 C 79.76 21.81 78.02 21.82 76.29 21.83 C 76.28 20.67 76.28 19.51 76.28 18.35 Z" />
<path fill="#231f20" opacity="1.00" d=" M 109.72 18.47 C 111.07 18.41 112.42 18.36 113.78 18.31 C 113.79 23.65 113.73 28.98 113.81 34.32 C 112.46 34.34 111.12 34.35 109.77 34.35 C 109.77 32.36 109.77 30.38 109.77 28.39 C 107.60 28.39 105.45 28.39 103.29 28.39 C 103.29 30.37 103.29 32.36 103.29 34.34 C 102.29 34.35 100.28 34.37 99.28 34.37 C 99.25 29.03 99.27 23.68 99.27 18.34 C 100.27 18.35 102.29 18.38 103.30 18.39 C 103.29 20.50 103.29 22.61 103.29 24.71 C 105.45 24.71 107.61 24.71 109.78 24.71 C 109.77 22.63 109.76 20.55 109.72 18.47 Z" />
<path fill="#231f20" opacity="1.00" d=" M 122.25 18.35 C 126.28 18.35 130.31 18.35 134.35 18.36 C 134.35 19.48 134.36 20.60 134.37 21.72 C 131.72 21.79 129.07 21.80 126.42 21.69 C 126.32 22.66 126.24 23.63 126.17 24.60 C 128.54 24.61 130.90 24.61 133.27 24.63 C 133.25 25.80 133.23 26.97 133.21 28.14 C 130.89 28.15 128.56 28.15 126.23 28.16 L 126.23 30.77 C 128.93 30.78 131.63 30.78 134.33 30.78 C 134.33 31.67 134.34 33.46 134.35 34.35 C 130.33 34.37 126.30 34.35 122.28 34.38 C 122.23 29.04 122.27 23.70 122.25 18.35 Z" />
<path fill="#231f20" opacity="1.00" d=" M 149.65 18.25 C 150.90 18.25 152.16 18.25 153.42 18.26 C 155.83 23.61 158.04 29.06 160.61 34.34 C 159.07 34.34 157.53 34.33 155.99 34.32 C 155.77 33.67 155.32 32.36 155.10 31.71 C 152.69 31.69 150.29 31.69 147.89 31.71 C 147.68 32.37 147.27 33.68 147.06 34.34 C 145.51 34.34 143.97 34.34 142.42 34.35 C 144.98 29.05 147.21 23.60 149.65 18.25 M 149.31 28.37 C 150.78 28.36 152.26 28.36 153.74 28.36 C 152.99 26.64 152.29 24.90 151.65 23.14 C 150.83 24.87 150.05 26.61 149.31 28.37 Z" />
<path fill="#231f20" opacity="1.00" d=" M 168.70 18.31 C 170.24 18.55 172.43 17.70 173.35 19.45 C 175.45 22.09 177.46 24.79 179.62 27.38 C 179.75 24.38 179.74 21.39 179.71 18.39 C 180.71 18.38 182.70 18.35 183.70 18.33 C 183.69 23.69 183.70 29.05 183.69 34.41 C 182.76 34.37 180.91 34.30 179.98 34.26 C 177.63 31.18 175.16 28.21 172.77 25.16 C 172.65 28.23 172.66 31.30 172.68 34.37 C 171.69 34.37 169.70 34.36 168.71 34.35 C 168.70 29.01 168.70 23.66 168.70 18.31 Z" />
<path fill="#231f20" opacity="1.00" d=" M 117.30 75.40 C 139.41 72.64 161.50 69.67 183.64 67.13 C 183.67 74.29 183.63 81.45 183.66 88.61 C 164.88 94.82 146.14 101.15 127.31 107.22 C 124.75 147.63 122.88 188.09 120.57 228.52 C 113.33 228.48 106.09 228.63 98.86 228.43 C 96.98 188.09 94.40 147.80 92.49 107.46 C 73.63 100.95 54.54 95.06 35.72 88.43 C 35.84 81.35 35.76 74.28 35.76 67.20 C 57.98 69.55 80.13 72.69 102.31 75.42 C 103.26 92.55 104.03 109.69 105.22 126.80 C 108.28 126.83 111.35 126.84 114.42 126.81 C 115.37 109.67 116.31 92.53 117.30 75.40 Z" />
</g>
</svg>

<?xml version="1.0" encoding="utf-8"?>
<!-- Generator: Adobe Illustrator 26.0.3, SVG Export Plug-In . SVG Version: 6.00 Build 0)  -->
<svg version="1.1" id="Layer_1" xmlns="http://www.w3.org/2000/svg" xmlns:xlink="http://www.w3.org/1999/xlink" x="0px" y="0px"
	 viewBox="0 0 222 250" style="enable-background:new 0 0 222 250;" xml:space="preserve">
<style type="text/css">
	.st0{fill:#FFFFFF;}
	.st1{fill:#231F20;}
</style>
<g id="_x23_ffffffff">
	<path class="st0" d="M149.3,28.4c0.7-1.8,1.5-3.5,2.3-5.2c0.6,1.8,1.3,3.5,2.1,5.2C152.3,28.4,150.8,28.4,149.3,28.4z"/>
</g>
<g id="_x23_231f20ff">
	<path class="st1" d="M35.7,18.4c1.3,0,2.7,0,4-0.1c0,4.1-0.1,8.3,0.1,12.4c2.6-0.1,5.2-0.1,7.8-0.1c0,0.9,0,2.7,0,3.6
		c-4,0-7.9,0-11.8,0C35.7,29,35.7,23.7,35.7,18.4z"/>
	<path class="st1" d="M55.7,18.5c4.1-0.2,8.3-0.1,12.4,0c0,1.1,0,2.1,0,3.2c-2.8,0.2-5.6,0.2-8.4,0.1c0,0.7,0,2.1,0,2.8
		c2.4,0,4.8,0,7.2,0c0,1.2-0.1,2.4-0.1,3.6c-2.4,0.4-8.1-1.8-7,2.5c2.7,0.1,5.3,0.1,8,0c0.3,1.2,1,2.6-0.1,3.6
		c-3.9,0.1-7.8,0-11.8,0C55.8,29,55.8,23.8,55.7,18.5z"/>
	<path class="st1" d="M76.3,18.4c4.8,0,9.7,0,14.6,0c0,1.1,0,2.3,0,3.5c-1.8,0-3.5,0-5.2,0c-0.1,4.2,0,8.4-0.1,12.5c-1,0-3,0-4,0
		c0-4.2,0-8.4-0.1-12.6c-1.7,0-3.5,0-5.2,0C76.3,20.7,76.3,19.5,76.3,18.4z"/>
	<path class="st1" d="M109.7,18.5c1.3-0.1,2.7-0.1,4.1-0.2c0,5.3,0,10.7,0,16c-1.3,0-2.7,0-4,0c0-2,0-4,0-6c-2.2,0-4.3,0-6.5,0
		c0,2,0,4,0,6c-1,0-3,0-4,0c0-5.3,0-10.7,0-16c1,0,3,0,4,0c0,2.1,0,4.2,0,6.3c2.2,0,4.3,0,6.5,0C109.8,22.6,109.8,20.5,109.7,18.5z"
		/>
	<path class="st1" d="M122.2,18.4c4,0,8.1,0,12.1,0c0,1.1,0,2.2,0,3.4c-2.6,0.1-5.3,0.1-7.9,0c-0.1,1-0.2,1.9-0.2,2.9
		c2.4,0,4.7,0,7.1,0c0,1.2,0,2.3-0.1,3.5c-2.3,0-4.7,0-7,0v2.6c2.7,0,5.4,0,8.1,0c0,0.9,0,2.7,0,3.6c-4,0-8.1,0-12.1,0
		C122.2,29,122.3,23.7,122.2,18.4z"/>
	<path class="st1" d="M149.6,18.2c1.2,0,2.5,0,3.8,0c2.4,5.4,4.6,10.8,7.2,16.1c-1.5,0-3.1,0-4.6,0c-0.2-0.7-0.7-2-0.9-2.6
		c-2.4,0-4.8,0-7.2,0c-0.2,0.7-0.6,2-0.8,2.6c-1.6,0-3.1,0-4.6,0C145,29,147.2,23.6,149.6,18.2 M149.3,28.4c1.5,0,2.9,0,4.4,0
		c-0.8-1.7-1.5-3.5-2.1-5.2C150.8,24.9,150.1,26.6,149.3,28.4z"/>
	<path class="st1" d="M168.7,18.3c1.5,0.2,3.7-0.6,4.7,1.1c2.1,2.6,4.1,5.3,6.3,7.9c0.1-3,0.1-6,0.1-9c1,0,3,0,4-0.1
		c0,5.4,0,10.7,0,16.1c-0.9,0-2.8-0.1-3.7-0.2c-2.3-3.1-4.8-6-7.2-9.1c-0.1,3.1-0.1,6.1-0.1,9.2c-1,0-3,0-4,0
		C168.7,29,168.7,23.7,168.7,18.3z"/>
	<path class="st1" d="M117.3,75.4c22.1-2.8,44.2-5.7,66.3-8.3c0,7.2,0,14.3,0,21.5c-18.8,6.2-37.5,12.5-56.4,18.6
		c-2.6,40.4-4.4,80.9-6.7,121.3c-7.2,0-14.5,0.1-21.7-0.1c-1.9-40.3-4.5-80.6-6.4-121c-18.9-6.5-37.9-12.4-56.8-19
		c0.1-7.1,0-14.2,0-21.2c22.2,2.4,44.4,5.5,66.6,8.2c1,17.1,1.7,34.3,2.9,51.4c3.1,0,6.1,0,9.2,0C115.4,109.7,116.3,92.5,117.3,75.4
		z"/>
</g>
</svg>
